X:2853
T:Billy boy
C:anon.
O:USA
Z:Transcribed by Frank Nordberg - http://www.musicaviva.com
F:http://abc.musicaviva.com/tunes/usa/billy-boy.abc
M:C
L:1/4
K:C
EF|G2GG|c2EF|G2GA|G2 EF|
G2GG|c2FE|ED3|z2 DE|
FFFF|F2GF|EDEF|G2cA|
G2EG|GFDE|DC3|z2|]
W:
W:
W:  From Musica Viva - http://www.musicaviva.com
W:  the Internet center for free sheet music downloads.
